public/footer/youtube.svg

<svg width="32" height="32" viewBox="0 0 32 32" fill="none" xmlns="http://www.w3.org/2000/svg">
<path d="M22.5006 9.27148H9.48957C7.68646 9.27148 6.22656 10.7314 6.22656 12.5345V19.4703C6.22656 21.2734 7.68646 22.7333 9.48957 22.7333H22.5006C24.3037 22.7333 25.7636 21.2734 25.7636 19.4703V12.5345C25.7636 10.7314 24.3037 9.27148 22.5006 9.27148ZM14.4276 18.8146V13.1492L19.2018 15.9819L14.4276 18.8146Z" fill="#979797"/>
</svg>

<svg width="32" height="32" fill="none" xmlns="http://www.w3.org/2000/svg"><path d="M22.5 9.271H9.49a3.262 3.262 0 0 0-3.263 3.263v6.936a3.262 3.262 0 0 0 3.263 3.263H22.5a3.262 3.262 0 0 0 3.264-3.263v-6.935A3.262 3.262 0 0 0 22.5 9.27zm-8.072 9.544v-5.666l4.774 2.833-4.774 2.833z" fill="#979797"/></svg>
